!!!!SEGMENT: pl-stab--5a--001-001_dankowski-adalbert--vespere-ex-c-de-confessoribus-domine-ad-adjuvandum.krn
!!!cenid: 18xx:3499
!!!COM: Dankowski, Adalbert
!!!COM-rismid: pe30000793
!!!CDT: ~1760-~1836
!!!CNT: Polish
!!!OPR: Vespere ex C de Confessoribus
!!!OTL: Domine ad adjuvandum
!!!OMV: 001
!!!PDT:
!!!AGN:
!!!SMS-siglum: PL-STAb
!!!SMS-shelfmark: 5a
!!!SMS-shelfwork: 001-001 M
!!!SMS-variant:
!!!SMS-altvar:
!!!NIFC-rismid: 301050557
!!!URL-scan: https://repozytorium.nifc.pl/islandora/object/pl-stab%3A1317/datastream/PDF/view
!!!ONB-nifc: UWAGA: części Nieszporów: 1. Domine ad adjuvandum, 2. Dixit Dominus, 3. Confitebor, 4. Beatus vir, 5. Laudate pueri, 6. Laudate Dominum, 7. In Exitu, 8. Magnificat, 9. Quia fecit, 10. Fecit potentiam, 11. Suscepit Israel, 12. Gloria patri
!!!OMD: Allegro
!!!key: C
**kern	**fba	**dynam	**kern	**kern	**kern	**text	**dynam	**kern	**text	**kern	**text	**kern	**text	**dynam	**kern	**kern	**dynam
*part9	*part9	*part9	*part8	*part7	*part6	*part6	*part6	*part5	*part5	*part4	*part4	*part3	*part3	*part3	*part2	*part1	*part1
*staff9	*staff9	*staff9	*staff8	*staff7	*staff6	*staff6	*	*staff5	*staff5	*staff4	*staff4	*staff3	*staff3	*	*staff2	*staff1	*
*I"Organo	*	*	*I"Violino Secondo	*I"Violino Primo	*I"Baſso	*	*	*I"Tenore.	*	*I"Alto	*	*I"Canto	*	*	*I"Cornu Secondo Ex C.	*I"Cornu Primo Ex C.	*
*I'org (=bc)	*	*	*I'vl 2	*I'vl 1	*I'B	*	*	*I'T	*	*I'A	*	*I'S	*	*	*I'cor 2	*I'cor 1	*
*Iorgan	*	*	*Ivioln	*Ivioln	*Ibass	*	*	*Itenor	*	*Ialto	*	*Isoprn	*	*	*Icor	*Icor	*
*ICklav	*	*	*ICstr	*ICstr	*ICvox	*	*	*ICvox	*	*ICvox	*	*ICvox	*	*	*ICbras	*ICbras	*
*IGcont	*	*	*IGripn	*IGripn	*IGcoro	*	*	*IGcoro	*	*IGcoro	*	*IGcoro	*	*	*IGripn	*IGripn	*
*clefF4	*	*	*clefG2	*clefG2	*clefF4	*	*	*clefC4	*	*clefC3	*	*clefC1	*	*	*clefG2	*clefG2	*
*k[]	*	*	*k[]	*k[]	*k[]	*	*	*k[]	*	*k[]	*	*k[]	*	*	*k[]	*k[]	*
*C:	*	*	*C:	*C:	*C:	*	*	*C:	*	*C:	*	*C:	*	*	*C:	*C:	*
*M2/2	*	*	*M2/2	*M2/2	*M2/2	*	*	*M2/2	*	*M2/2	*	*M2/2	*	*	*M2/2	*M2/2	*
*met(c|)	*	*	*met(c|)	*met(c|)	*met(c|)	*	*	*met(c|)	*	*met(c|)	*	*met(c|)	*	*	*met(c|)	*met(c|)	*
=1	=1	=1	=1	=1	=1	=1	=1	=1	=1	=1	=1	=1	=1	=1	=1	=1	=1
*	*	*	*2\right	*2\right	*	*	*	*2\right	*	*2\right	*	*	*	*	*	*	*
!	!	!	!	!	!	!	!	!LO:TX:a:t=Allegro.	!	!LO:TX:a:t=Allegro	!	!LO:TX:a:t=Allegro	!	!	!	!	!
!LO:TX:a:t=Allegro.	!	!	!	!	!LO:TX:a:t=Allegro.	!	!	!LO:TX:a:t=Solo.	!	!LO:TX:a:i:t=Solo	!	!LO:TX:a:t=3	!	!	!	!	!
8C/L	3 1	.	2.cc\	2.ee\	0r	.	.	2.c\	Do-	2.e\	Do-	0r	.	.	0r	0r	.
8C/	_ _	.	.	.	.	.	.	.	.	.	.	.	.	.	.	.	.
8C/	.	.	.	.	.	.	.	.	.	.	.	.	.	.	.	.	.
8C/J	.	.	.	.	.	.	.	.	.	.	.	.	.	.	.	.	.
8C/L	x x	.	.	.	.	.	.	.	.	.	.	.	.	.	.	.	.
8C/	.	.	.	.	.	.	.	.	.	.	.	.	.	.	.	.	.
8C/	4 2	.	8dd\L	8ff\L	.	.	.	4d\	-mi-	4f\	-mi-	.	.	.	.	.	.
8C/J	_ _	.	16cc\L	16ee\L	.	.	.	.	.	.	.	.	.	.	.	.	.
.	.	.	16dd\JJ	16ff\JJ	.	.	.	.	.	.	.	.	.	.	.	.	.
=2	=2	=2	=2	=2	=2	=2	=2	=2	=2	=2	=2	=2	=2	=2	=2	=2	=2
8C/L	5 3	.	4ee\	4gg\	.	.	.	4e\	-ne	4g\	-ne	.	.	.	.	.	.
8C/	_ _	.	.	.	.	.	.	.	.	.	.	.	.	.	.	.	.
8C/	.	.	4cc\	4ee\	.	.	.	4c\	ad	4e\	ad	.	.	.	.	.	.
8C/J	.	.	.	.	.	.	.	.	.	.	.	.	.	.	.	.	.
8C/L	6 4	.	4ff\	4aa\	.	.	.	4f\	ad-	4a\	ad-	.	.	.	.	.	.
8C/	_ _	.	.	.	.	.	.	.	.	.	.	.	.	.	.	.	.
8C/	5 3	.	4ee\	4gg\	.	.	.	4e\	-ju-	4g\	-ju-	.	.	.	.	.	.
8C/J	_ _	.	.	.	.	.	.	.	.	.	.	.	.	.	.	.	.
=3	=3	=3	=3	=3	=3	=3	=3	=3	=3	=3	=3	=3	=3	=3	=3	=3	=3
8F\L	8 6	.	4dd\	4ff\	1r	.	.	4d\	-van-	4f\	-van-	1r	.	.	1r	1r	.
8F\	_ _	.	.	.	.	.	.	.	.	.	.	.	.	.	.	.	.
8F\	7 5	.	2cc\	4ee\	.	.	.	2c\	.	4e\	.	.	.	.	.	.	.
8F\J	.	.	.	.	.	.	.	.	.	.	.	.	.	.	.	.	.
!LO:TX:a:t=P:problem:mixedbeam	!	!	!	!	!	!	!	!	!	!	!	!	!	!	!	!	!
8G\L	5 4:	.	.	4.dd\	.	.	.	.	.	4.d\	.	.	.	.	.	.	.
8G\	.	.	.	.	.	.	.	.	.	.	.	.	.	.	.	.	.
8GG/	_ 3	.	4b\	.	.	.	.	4B\	-dum	.	.	.	.	.	.	.	.
8GG/J	.	.	.	16cc\LL	.	.	.	.	.	8d\	-dum	.	.	.	.	.	.
.	.	.	.	16dd\JJ	.	.	.	.	.	.	.	.	.	.	.	.	.
=4	=4	=4	=4	=4	=4	=4	=4	=4	=4	=4	=4	=4	=4	=4	=4	=4	=4
!	!	!	!LO:TX:a:t=P:problem:mixedbeam	!LO:TX:a:t=P:problem:mixedbeam	!	!	!LO:DY:a	!	!	!	!	!	!	!	!	!	!
2C/	1	.	8cc\L	8ee\L	2r	.	f	2c\	me	2e\	me	2r	.	.	2r	2r	.
.	.	.	8c/	8e/	.	.	.	.	.	.	.	.	.	.	.	.	.
.	.	.	8e/	8g/	.	.	.	.	.	.	.	.	.	.	.	.	.
.	.	.	8g/J	8cc/J	.	.	.	.	.	.	.	.	.	.	.	.	.
4r	.	.	8cc\L	8ee\L	4r	.	.	4r	.	4r	.	4r	.	.	4r	4r	.
.	.	.	8g\	8cc\	.	.	.	.	.	.	.	.	.	.	.	.	.
!	!	!	!	!	!	!	!	!	!	!	!	!	!	!	!	!	!LO:DY:a:t=for:rj
4C/	2	.	8ee\	8gg\	4C/	fe-	.	4c\	fe-	4g\	fe-	4ee\	fe-	.	4cc\	4ee\	f
.	.	.	8cc\J	8ee\J	.	.	.	.	.	.	.	.	.	.	.	.	.
=5	=5	=5	=5	=5	=5	=5	=5	=5	=5	=5	=5	=5	=5	=5	=5	=5	=5
4G\	6 4	.	8dd\L	8ee\L	4G\	-sti-	.	4c\	-ſti-	4g\	-ſti-	4ee\	-ſti-	.	4cc\	4ee\	.
.	.	.	16b\L	16dd\L	.	.	.	.	.	.	.	.	.	.	.	.	.
.	.	.	16cc\JJ	16ee\JJ	.	.	.	.	.	.	.	.	.	.	.	.	.
4GG/	5 3	.	4b\	4dd\	4GG/	-na	.	4B\	-na	4g\	-na	4dd\	-na	.	4g/	4dd\	.
2r	.	.	8b\L	8dd\L	2r	.	.	2r	.	2r	.	2r	.	.	2r	2r	.
.	.	.	8cc\	8ee\	.	.	.	.	.	.	.	.	.	.	.	.	.
.	.	.	8b\	8dd\	.	.	.	.	.	.	.	.	.	.	.	.	.
.	.	.	8a\J	8cc\J	.	.	.	.	.	.	.	.	.	.	.	.	.
!	!	!	!	!LO:LB:g=original	!	!	!	!	!	!LO:LB:g=original	!	!	!	!	!	!	!
=6	=6	=6	=6	=6	=6	=6	=6	=6	=6	=6	=6	=6	=6	=6	=6	=6	=6
*	*	*	*	*	*	*	*	*	*	*	*	*2\right	*	*	*	*	*
!	!	!	!	!	!	!	!	!	!	!	!	!LO:TX:a:i:t=Solo.	!	!	!LO:TX:a:t=3	!	!
8G\L	3_	.	2.g/	2.b\	0r	.	.	0r	.	2.g\	Do-	2.b\	Do-	.	0r	0r	.
8G\	.	.	.	.	.	.	.	.	.	.	.	.	.	.	.	.	.
8G\	.	.	.	.	.	.	.	.	.	.	.	.	.	.	.	.	.
8G\J	.	.	.	.	.	.	.	.	.	.	.	.	.	.	.	.	.
!LO:LB:g=original	!	!	!	!	!	!	!	!	!	!	!	!	!	!	!	!	!
=-	=-	=-	=-	=-	=-	=-	=-	=-	=-	=-	=-	=-	=-	=-	=-	=-	=-
8G\L	.	.	.	.	.	.	.	.	.	.	.	.	.	.	.	.	.
8G\	.	.	.	.	.	.	.	.	.	.	.	.	.	.	.	.	.
8G\	4 2	.	8a/L	8cc\L	.	.	.	.	.	4a\	-mi-	4cc\	-mi-	.	.	.	.
8G\J	_ _	.	16g/L	16b\L	.	.	.	.	.	.	.	.	.	.	.	.	.
.	.	.	16a/JJ	16cc\JJ	.	.	.	.	.	.	.	.	.	.	.	.	.
=7	=7	=7	=7	=7	=7	=7	=7	=7	=7	=7	=7	=7	=7	=7	=7	=7	=7
*2\right	*	*	*	*	*	*	*	*	*	*	*	*	*	*	*	*	*
*tremolo	*	*	*	*	*	*	*	*	*	*	*	*	*	*	*	*	*
8G\L	5 3	.	4b/	4dd\	.	.	.	.	.	4b\	-ne	4dd\	-ne	.	.	.	.
8G\	.	.	.	.	.	.	.	.	.	.	.	.	.	.	.	.	.
8G\	.	.	4g/	4b\	.	.	.	.	.	4g\	ad	4b\	ad	.	.	.	.
8G\J	.	.	.	.	.	.	.	.	.	.	.	.	.	.	.	.	.
8G\L	6 4	.	4cc/	4ee\	.	.	.	.	.	4cc\	ad-	4ee\	ad-	.	.	.	.
8G\	.	.	.	.	.	.	.	.	.	.	.	.	.	.	.	.	.
8G\	5 3	.	4b/	4dd\	.	.	.	.	.	4b\	-ju-	4dd\	-ju-	.	.	.	.
8G\J	.	.	.	.	.	.	.	.	.	.	.	.	.	.	.	.	.
!	!	!	!	!	!	!	!	!	!	!	!	!LO:LB:g=original	!	!	!	!	!
=8	=8	=8	=8	=8	=8	=8	=8	=8	=8	=8	=8	=8	=8	=8	=8	=8	=8
8G\L	4 2	.	2.a/	2.cc\	1r	.	.	1r	.	2.a\	-van-	2.cc\	-van-	.	1r	1r	.
8G\	.	.	.	.	.	.	.	.	.	.	.	.	.	.	.	.	.
8G\	.	.	.	.	.	.	.	.	.	.	.	.	.	.	.	.	.
8G\J	.	.	.	.	.	.	.	.	.	.	.	.	.	.	.	.	.
8F#X\L	6 5	.	.	.	.	.	.	.	.	.	.	.	.	.	.	.	.
8F#\	.	.	.	.	.	.	.	.	.	.	.	.	.	.	.	.	.
8F#\	.	.	8b/L	8dd\L	.	.	.	.	.	4a\	-dum	8dd\L	-dum	.	.	.	.
8F#\J	.	.	8a/J	8cc\J	.	.	.	.	.	.	.	8cc\J	.	.	.	.	.
*Xtremolo	*	*	*	*	*	*	*	*	*	*	*	*	*	*	*	*	*
!	!	!	!LO:LB:g=original	!	!	!	!	!LO:LB:g=original	!	!	!	!	!	!	!	!	!
=9	=9	=9	=9	=9	=9	=9	=9	=9	=9	=9	=9	=9	=9	=9	=9	=9	=9
2G\	1	.	8g/L	8b\L	2r	.	.	2r	.	2g\	me	2b\	me	.	2r	2r	.
.	.	.	8d/	8g\	.	.	.	.	.	.	.	.	.	.	.	.	.
.	.	.	8g/	8b\	.	.	.	.	.	.	.	.	.	.	.	.	.
.	.	.	8b/J	8dd\J	.	.	.	.	.	.	.	.	.	.	.	.	.
4r	.	.	4dd\	8gg\L	4r	.	.	4r	.	4r	.	4r	.	.	4r	4r	.
.	.	.	.	8aa\	.	.	.	.	.	.	.	.	.	.	.	.	.
!	!	!LO:DY:a:t=fo:rj	!	!	!	!	!	!	!	!	!	!	!	!	!	!	!
4B\	6 5nr	f	4dd\	8gg\	4B\	fes-	.	4d\	feſ-	4g\	fe-	8gg\L	fe-	.	4g/	4dd\	.
.	.	.	.	8ffn\J	.	.	.	.	.	.	.	8ff\J	.	.	.	.	.
=10	=10	=10	=10	=10	=10	=10	=10	=10	=10	=10	=10	=10	=10	=10	=10	=10	=10
4c\	9 4	.	8dd\L	8ff\L	4c\	-ti-	.	4d\	-ti-	4g\	-sti-	4ff\	-sti-	.	4g/	4dd\	.
.	.	.	16ee\L	16gg\L	.	.	.	.	.	.	.	.	.	.	.	.	.
.	.	.	16dd\JJ	16ff\JJ	.	.	.	.	.	.	.	.	.	.	.	.	.
4C/	6 3	.	8cc\L	8ee\L	4C/	-na	.	4c\	-na	4g\	-na	4ee\	-na	.	4e/	4cc\	.
.	.	.	8ee\J	8gg\J	.	.	.	.	.	.	.	.	.	.	.	.	.
2r	.	.	8ee\L	8ccc\L	2r	.	.	4r	.	2r	.	2r	.	.	2r	2r	.
.	.	.	8gg\	8bb\	.	.	.	.	.	.	.	.	.	.	.	.	.
.	.	.	8ff\	8aa\	.	.	.	4r	.	.	.	.	.	.	.	.	.
.	.	.	8ee\J	8gg\J	.	.	.	.	.	.	.	.	.	.	.	.	.
!	!	!	!	!	!LO:LB:g=original	!	!	!	!	!	!	!	!	!	!	!	!
=11	=11	=11	=11	=11	=11	=11	=11	=11	=11	=11	=11	=11	=11	=11	=11	=11	=11
*	*	*	*	*	*2\right	*	*	*	*	*	*	*	*	*	*	*	*
!LO:TX:a:i:t=pleno:rj	!	!	!	!	!	!	!	!	!	!	!	!	!	!	!	!	!
8C/L	6 4	.	4.ff\	4.aa\	2.c\	Do-	.	2.c\	Do-	2.a\	Do-	2.ff\	Do-	.	4c/	4cc\	.
8C/	_ _	.	.	.	.	.	.	.	.	.	.	.	.	.	.	.	.
8C/	.	.	.	.	.	.	.	.	.	.	.	.	.	.	8c/L	8cc\L	.
8C/J	.	.	8gg\	8bb\	.	.	.	.	.	.	.	.	.	.	8c/J	8cc\J	.
.	.	.	.	8qqbb/	.	.	.	.	.	.	.	.	.	.	.	.	.
*tremolo	*	*	*	*	*	*	*	*	*	*	*	*	*	*	*	*	*
8C/L	x x	.	4aa\	4ccc\	.	.	.	.	.	.	.	.	.	.	4c/	4cc\	.
8C/	.	.	.	.	.	.	.	.	.	.	.	.	.	.	.	.	.
8C/	.	.	8gg\L	8bb\L	4c\	-mi-	.	4c\	-mi-	4a\	-mi-	4ff\	-mi-	.	4c/	4cc\	.
8C/J	.	.	8ff\J	8aa\J	.	.	.	.	.	.	.	.	.	.	.	.	.
*Xtremolo	*	*	*	*	*	*	*	*	*	*	*	*	*	*	*	*	*
=12	=12	=12	=12	=12	=12	=12	=12	=12	=12	=12	=12	=12	=12	=12	=12	=12	=12
8C/L	5 3	.	8ff\L	8aa\L	4c\	-ne	.	4c\	-ne	4g\	-ne	4ee\	-ne	.	1c	1cc	.
8C/	.	.	8ee\	8gg\	.	.	.	.	.	.	.	.	.	.	.	.	.
8C/	.	.	8dd\	8ff\	4c\	ad	.	4c\	ad	4g\	ad	4ee\	ad	.	.	.	.
8C/J	.	.	8ee\J	8gg\J	.	.	.	.	.	.	.	.	.	.	.	.	.
*tremolo	*	*	*	*	*	*	*	*	*	*	*	*	*	*	*	*	*
8C/L	_ _	.	4ee\	8ccc\L	4c\	ad-	.	4c\	ad-	4g\	ad-	4ee\	ad-	.	.	.	.
8C/	x x	.	.	8bb\	.	.	.	.	.	.	.	.	.	.	.	.	.
8C/	.	.	4ee\	8aa\	4c\	-ju-	.	4c\	-ju-	4g\	-ju-	4ee\	-ju-	.	.	.	.
8C/J	.	.	.	8gg\J	.	.	.	.	.	.	.	.	.	.	.	.	.
!	!	!	!	!	!	!	!	!	!	!LO:LB:g=original	!	!	!	!	!LO:LB:g=original	!	!
=13	=13	=13	=13	=13	=13	=13	=13	=13	=13	=13	=13	=13	=13	=13	=13	=13	=13
!	!	!	!	!LO:TX:a:t=P:problem:2 takty zapisane repetycją	!	!	!	!	!	!	!	!	!	!	!	!	!
8C/L	6 4	.	4.ff\	4.aa\	2.c\	-van-	.	2.c\	-van-	2.a\	-van-	2.ff\	-van-	.	4c/	4cc\	.
8C/	.	.	.	.	.	.	.	.	.	.	.	.	.	.	.	.	.
8C/	.	.	.	.	.	.	.	.	.	.	.	.	.	.	8c/L	8cc\L	.
8C/J	.	.	8gg\	8bb\	.	.	.	.	.	.	.	.	.	.	8c/J	8cc\J	.
.	.	.	.	8qqbb/	.	.	.	.	.	.	.	.	.	.	.	.	.
8C/L	_ _	.	4aa\	4ccc\	.	.	.	.	.	.	.	.	.	.	4c/	4cc\	.
8C/	x x	.	.	.	.	.	.	.	.	.	.	.	.	.	.	.	.
8C/	.	.	8gg\L	8bb\L	4c\	-dum	.	4c\	-dum	4a\	-dum	4ff\	-dum	.	4c/	4cc\	.
8C/J	.	.	8ff\J	8aa\J	.	.	.	.	.	.	.	.	.	.	.	.	.
=14	=14	=14	=14	=14	=14	=14	=14	=14	=14	=14	=14	=14	=14	=14	=14	=14	=14
8C/L	5 3	.	8ff\L	8aa\L	2c\	me	.	2c\	me	2g\	me	2ee\	me	.	1c	1cc	.
8C/	.	.	8ee\	8gg\	.	.	.	.	.	.	.	.	.	.	.	.	.
8C/	.	.	8dd\	8ff\	.	.	.	.	.	.	.	.	.	.	.	.	.
8C/J	.	.	8ee\J	8gg\J	.	.	.	.	.	.	.	.	.	.	.	.	.
8C/L	_ _	.	4ee\	8ccc\L	2c\	ad	.	2c\	ad	2g\	ad	2ee\	ad	.	.	.	.
8C/	x x	.	.	8bb\	.	.	.	.	.	.	.	.	.	.	.	.	.
8C/	.	.	4ee\	8aa\	.	.	.	.	.	.	.	.	.	.	.	.	.
8C/J	.	.	.	8gg\J	.	.	.	.	.	.	.	.	.	.	.	.	.
!LO:LB:g=original	!	!	!	!LO:LB:g=original	!	!	!	!	!	!	!	!LO:LB:g=original	!	!	!	!LO:LB:g=original	!
=15	=15	=15	=15	=15	=15	=15	=15	=15	=15	=15	=15	=15	=15	=15	=15	=15	=15
8BB/L	6 4	.	4dd\	4.gg\	2B\	ad-	.	2d\	ad-	2g\	ad-	2ff\	ad-	.	4g/	4dd\	.
8BB/	.	.	.	.	.	.	.	.	.	.	.	.	.	.	.	.	.
8BB/	.	.	4dd\	.	.	.	.	.	.	.	.	.	.	.	8g/L	8dd\L	.
8BB/J	.	.	.	8aa\	.	.	.	.	.	.	.	.	.	.	8g/J	8dd\J	.
8BB/L	_ _	.	8ee\L	8gg\L	2B\	-ju-	.	2d\	-ju-	2g\	-ju-	2ff\	-ju-	.	4g/	4dd\	.
8BB/	x x	.	8dd\	8ff\	.	.	.	.	.	.	.	.	.	.	.	.	.
8BB/	.	.	8cc\	8ee\	.	.	.	.	.	.	.	.	.	.	4g/	4dd\	.
8BB/J	.	.	8dd\J	8ff\J	.	.	.	.	.	.	.	.	.	.	.	.	.
!	!	!	!	!	!	!	!	!LO:LB:g=original	!	!	!	!	!	!	!	!	!
=16	=16	=16	=16	=16	=16	=16	=16	=16	=16	=16	=16	=16	=16	=16	=16	=16	=16
8C/L	5 3	.	8dd\L	8ff\L	2c\	-van-	.	2c\	-van-	2g\	-van-	2ee\	-van-	.	4cc\	4ee\	.
8C/	.	.	8cc\J	8ee\J	.	.	.	.	.	.	.	.	.	.	.	.	.
8C/	.	.	4cc\	4ee\	.	.	.	.	.	.	.	.	.	.	8cc\L	8ee\L	.
8C/J	.	.	.	.	.	.	.	.	.	.	.	.	.	.	8cc\J	8ee\J	.
8E\L	6 3	.	4.gg\	4.ccc\	2E\	-dum	.	2c\	-dum	2g\	-dum	2ee\	-dum	.	4cc\	4ee\	.
8E\	.	.	.	.	.	.	.	.	.	.	.	.	.	.	.	.	.
8E\	.	.	.	.	.	.	.	.	.	.	.	.	.	.	4cc\	4gg\	.
8E\J	.	.	16aa\LL	8bb\	.	.	.	.	.	.	.	.	.	.	.	.	.
.	.	.	16gg\JJ	.	.	.	.	.	.	.	.	.	.	.	.	.	.
!	!	!	!LO:LB:g=original	!	!LO:LB:g=original	!	!	!	!	!	!	!	!	!	!	!	!
=17	=17	=17	=17	=17	=17	=17	=17	=17	=17	=17	=17	=17	=17	=17	=17	=17	=17
*	*	*	*	*	*	*	*	*	*	*	*	*	*	*	*2\right	*2\right	*
8F\L	6 3	.	8ff\L	8aa\L	4F\	me	.	4d\	me	4a\	me	4ff\	me	.	2dd\	2ff\	.
8F\	.	.	8ee\	8gg\	.	.	.	.	.	.	.	.	.	.	.	.	.
8F\	.	.	8ff\	8aa\	4F\	fe-	.	4d\	fe-	4a\	fe-	4ff\	fe-	.	.	.	.
8F\J	.	.	8dd\J	8ff\J	.	.	.	.	.	.	.	.	.	.	.	.	.
*Xtremolo	*	*	*	*	*	*	*	*	*	*	*	*	*	*	*	*	*
!LO:TX:a:t=P:problem:mixedbeam	!	!	!	!	!	!	!	!	!	!	!	!	!	!	!	!	!
8G\L	6 4	.	8dd\L	8ff\L	4G\	-ſti-	.	4c\	-ſti-	2g\	-sti-	4ee\	-ſti-	.	4cc\	4ee\	.
8G\	.	.	8cc\	8ee\	.	.	.	.	.	.	.	.	.	.	.	.	.
8GG/	5 3	.	8cc\	8ee\	4GG/	-na	.	4B\	.	.	.	4dd\	-na	.	4g/	4dd\	.
8GG/J	.	.	8b\J	8dd\J	.	.	.	.	.	.	.	.	.	.	.	.	.
=18	=18	=18	=18	=18	=18	=18	=18	=18	=18	=18	=18	=18	=18	=18	=18	=18	=18
8C\L	1	.	8cc\L	8ee\L	2C/	.	.	2c\	-na	2g\	-na	2ee\	.	.	2e/	2cc\	.
8c|>\	.	.	8cc\	8cc\	.	.	.	.	.	.	.	.	.	.	.	.	.
8B|>\	.	.	8b\	8b\	.	.	.	.	.	.	.	.	.	.	.	.	.
8c|>\J	.	.	8cc\J	8cc\J	.	.	.	.	.	.	.	.	.	.	.	.	.
8G|>\L	.	.	8g/L	8g/L	2r	.	.	2r	.	2r	.	2r	.	.	2r	2r	.
8c|>\	.	.	8cc/	8cc/	.	.	.	.	.	.	.	.	.	.	.	.	.
8E|>\	.	.	8e/	8e/	.	.	.	.	.	.	.	.	.	.	.	.	.
8G|>\J	.	.	8g/J	8g/J	.	.	.	.	.	.	.	.	.	.	.	.	.
=19	=19	=19	=19	=19	=19	=19	=19	=19	=19	=19	=19	=19	=19	=19	=19	=19	=19
!	!	!	!LO:TX:a:t=P:problem:mixedbeam	!LO:TX:a:t=P:problem:mixedbeam	!	!	!LO:DY:a	!	!	!	!	!	!	!LO:DY:a	!	!	!
!	!	!	!	!	!	!	!LO:DY:a:rj	!	!	!	!	!	!	!LO:DY:a:t=pf:rj	!	!	!
8C|>\L	.	.	8c/L	8c/L	2c\	Glo-	f	2c\	Glo-	2cc\	Glo-	2cc\	Glo-	p	00r	00r	.
8c|>\	.	.	8cc\	8cc\	.	.	.	.	.	.	.	.	.	.	.	.	.
8B|>\	.	.	8b\	8b\	.	.	.	.	.	.	.	.	.	.	.	.	.
8A|>\J	.	.	8a\J	8a\J	.	.	.	.	.	.	.	.	.	.	.	.	.
8G|>\L	.	.	8g/L	8g/L	4c\	-ri-	.	4c\	-ri-	4cc\	-ri-	4cc\	-ri-	.	.	.	.
8F|>\	.	.	8f/	8f/	.	.	.	.	.	.	.	.	.	.	.	.	.
8E\	.	.	8e/	8e/	4c\	-a	.	4c\	-a	4cc\	-a	4cc\	-a	.	.	.	.
8D|>\J	.	.	8d/J	8d/J	.	.	.	.	.	.	.	.	.	.	.	.	.
!	!	!	!	!	!	!	!	!	!	!LO:LB:g=original	!	!	!	!	!	!	!
=20	=20	=20	=20	=20	=20	=20	=20	=20	=20	=20	=20	=20	=20	=20	=20	=20	=20
8C\L	.	.	8c/L	8c/L	2c\	pa-	.	2c\	pa-	2cc\	Pa-	2cc\	pa-	.	.	.	.
8D\	.	.	8d/	8d/	.	.	.	.	.	.	.	.	.	.	.	.	.
8E\	.	.	8e/	8e/	.	.	.	.	.	.	.	.	.	.	.	.	.
8F\J	.	.	8f/J	8f/J	.	.	.	.	.	.	.	.	.	.	.	.	.
8E\L	.	.	8e/L	8e/L	4c\	-tri	.	4c\	-tri	4cc\	-tri	4cc\	-tri	.	.	.	.
8D\	.	.	8d/	8d/	.	.	.	.	.	.	.	.	.	.	.	.	.
8E\	.	.	8e/	8e/	4c\	et	.	4c\	et	4cc\	et	4cc\	et	.	.	.	.
8C\J	.	.	8c/J	8c/J	.	.	.	.	.	.	.	.	.	.	.	.	.
!	!	!	!	!LO:LB:g=original	!	!	!	!	!	!	!	!	!	!	!	!	!
=21	=21	=21	=21	=21	=21	=21	=21	=21	=21	=21	=21	=21	=21	=21	=21	=21	=21
8F\L	.	.	8f/L	8f/L	2.d\	fi-	.	2.d\	fi-	2.dd\	fi-	2.dd\	fi-	.	.	.	.
8E\	.	.	8e/	8e/	.	.	.	.	.	.	.	.	.	.	.	.	.
8F\	.	.	8f/	8f/	.	.	.	.	.	.	.	.	.	.	.	.	.
8D\J	.	.	8d/J	8d/J	.	.	.	.	.	.	.	.	.	.	.	.	.
!LO:TX:a:t=P:problem:mixedbeam	!	!	!	!	!	!	!	!	!	!	!	!	!	!	!	!	!
8G\L	.	.	8g/L	8g/L	.	.	.	.	.	.	.	.	.	.	.	.	.
8F\	.	.	8f/	8f/	.	.	.	.	.	.	.	.	.	.	.	.	.
8G\	.	.	8g/	8g/	4d\	-li-	.	4d\	-li-	4dd\	-li-	4dd\	-li-	.	.	.	.
8GG/J	.	.	8G/J	8G/J	.	.	.	.	.	.	.	.	.	.	.	.	.
=22	=22	=22	=22	=22	=22	=22	=22	=22	=22	=22	=22	=22	=22	=22	=22	=22	=22
!	!	!	!LO:TX:a:t=P:problem:mixedbeam	!LO:TX:a:t=P:problem:mixedbeam	!	!	!	!	!	!	!	!	!	!	!	!	!
8C\L	.	.	8c/L	8c/L	2c\	-o	.	2c\	-o.	2cc\	-o	2cc\	-o	.	.	.	.
8c\	.	.	8cc\	8cc\	.	.	.	.	.	.	.	.	.	.	.	.	.
8B\	.	.	8b\	8b\	.	.	.	.	.	.	.	.	.	.	.	.	.
8A\J	.	.	8a\J	8a\J	.	.	.	.	.	.	.	.	.	.	.	.	.
8G\L	.	.	8g/L	8g/L	2r	.	.	2r	.	2r	.	2r	.	.	.	.	.
8F\	.	.	8f/	8f/	.	.	.	.	.	.	.	.	.	.	.	.	.
8E\	.	.	8e/	8e/	.	.	.	.	.	.	.	.	.	.	.	.	.
8D\J	.	.	8d/J	8d/J	.	.	.	.	.	.	.	.	.	.	.	.	.
!LO:LB:g=original	!	!	!LO:LB:g=original	!	!LO:LB:g=original	!	!	!LO:LB:g=original	!	!	!	!LO:LB:g=original	!	!	!	!	!
=23	=23	=23	=23	=23	=23	=23	=23	=23	=23	=23	=23	=23	=23	=23	=23	=23	=23
8C\L	.	.	8c/L	8c/L	2c\	et	.	2c\	et	2cc\	et	2cc\	et	.	00r	00r	.
8D\	.	.	8d/	8d/	.	.	.	.	.	.	.	.	.	.	.	.	.
8E\	.	.	8e/	8e/	.	.	.	.	.	.	.	.	.	.	.	.	.
8F\J	.	.	8f/J	8f/J	.	.	.	.	.	.	.	.	.	.	.	.	.
8E\L	.	.	8e/L	8e/L	2c\	Spi-	.	2c\	Spi-	2cc\	Spi-	2cc\	Spi-	.	.	.	.
8D\	.	.	8d/	8d/	.	.	.	.	.	.	.	.	.	.	.	.	.
8E\	.	.	8e/	8e/	.	.	.	.	.	.	.	.	.	.	.	.	.
8C\J	.	.	8c/J	8c/J	.	.	.	.	.	.	.	.	.	.	.	.	.
=24	=24	=24	=24	=24	=24	=24	=24	=24	=24	=24	=24	=24	=24	=24	=24	=24	=24
8D/L	.	.	8d/L	8d/L	2B\	-Ri-	.	2B\	-ri-	2b\	-ri-	2b\	-ri-	.	.	.	.
8C/	.	.	8c/	8c/	.	.	.	.	.	.	.	.	.	.	.	.	.
8BB/	.	.	8B/	8B/	.	.	.	.	.	.	.	.	.	.	.	.	.
8GG/J	.	.	8A/J	8G/J	.	.	.	.	.	.	.	.	.	.	.	.	.
8C/L	.	.	8c/L	8c/L	4c\	-tu-	.	4c\	-tu-	4cc\	-tu-	4cc\	-tu-	.	.	.	.
8D/	.	.	8d/	8d/	.	.	.	.	.	.	.	.	.	.	.	.	.
8E/	.	.	8e/	8e/	4c\	-i	.	4c\	-i	4cc\	-i	4cc\	-i	.	.	.	.
8D/J	.	.	8d/J	8d/J	.	.	.	.	.	.	.	.	.	.	.	.	.
=25	=25	=25	=25	=25	=25	=25	=25	=25	=25	=25	=25	=25	=25	=25	=25	=25	=25
8C/L	.	.	8c/L	8c/L	1A	San-	.	1A	San-	1a	San-	1a	San-	.	.	.	.
8BB/	.	.	8B/	8B/	.	.	.	.	.	.	.	.	.	.	.	.	.
8C/	.	.	8c/	8c/	.	.	.	.	.	.	.	.	.	.	.	.	.
8AA/J	.	.	8A/J	8A/J	.	.	.	.	.	.	.	.	.	.	.	.	.
8D/L	.	.	8d/L	8d/L	.	.	.	.	.	.	.	.	.	.	.	.	.
8C/	.	.	8c/	8c/	.	.	.	.	.	.	.	.	.	.	.	.	.
8D/	.	.	8d/	8d/	.	.	.	.	.	.	.	.	.	.	.	.	.
8DD/J	.	.	8d/J	8d/J	.	.	.	.	.	.	.	.	.	.	.	.	.
=26	=26	=26	=26	=26	=26	=26	=26	=26	=26	=26	=26	=26	=26	=26	=26	=26	=26
8GG/L	.	.	8g/L	8g/L	2G\	-cto	.	2G/	-cto	2g\	-cto	2g\	-cto	.	.	.	.
8GG/	.	.	8G/	8G/	.	.	.	.	.	.	.	.	.	.	.	.	.
8BB/	.	.	8B/	8B/	.	.	.	.	.	.	.	.	.	.	.	.	.
8D/J	.	.	8d/J	8d/J	.	.	.	.	.	.	.	.	.	.	.	.	.
8G\L	.	.	8g/L	8g/L	2r	.	.	2r	.	2r	.	2r	.	.	.	.	.
8F\	.	.	8f/	8f/	.	.	.	.	.	.	.	.	.	.	.	.	.
8E\	.	.	8e/	8e/	.	.	.	.	.	.	.	.	.	.	.	.	.
8D\J	.	.	8d/J	8d/J	.	.	.	.	.	.	.	.	.	.	.	.	.
!	!	!	!	!LO:LB:g=original	!	!	!	!	!	!	!	!	!	!	!	!	!
=27	=27	=27	=27	=27	=27	=27	=27	=27	=27	=27	=27	=27	=27	=27	=27	=27	=27
!	!	!	!	!	!	!	!	!	!	!	!	!	!	!LO:DY:a:rj	!	!	!
8C\L	8 3	.	4c/	4c/	2c\	Si-	.	2.c\	Si-	2g\	Si-	2ee\	Si-	f	2cc\	2ee\	.
8D\	.	.	.	.	.	.	.	.	.	.	.	.	.	.	.	.	.
8E\	.	.	4cc\ 4gg	4ee\ 4ccc	.	.	.	.	.	.	.	.	.	.	.	.	.
8C\J	.	.	.	.	.	.	.	.	.	.	.	.	.	.	.	.	.
8F\L	6 5	.	4cc\ 4aa	4dd\ 4ccc	4F\	.	.	.	.	4a\	.	2dd\	-cut	.	4cc\	2dd\	.
8D\	.	.	.	.	.	.	.	.	.	.	.	.	.	.	.	.	.
8G\	5 3	.	4dd\ 4ff	4dd\ 4bb	4G\	-cut	.	4B\	-cut	4g\	-cut	.	.	.	4g/	.	.
8F\J	.	.	.	.	.	.	.	.	.	.	.	.	.	.	.	.	.
!	!	!	!	!	!	!	!	!	!	!LO:LB:g=original	!	!	!	!	!	!	!
=28	=28	=28	=28	=28	=28	=28	=28	=28	=28	=28	=28	=28	=28	=28	=28	=28	=28
!	!	!	!LO:TX:a:t=P:problem:mixedbeam	!	!	!	!	!	!	!	!	!	!	!	!	!	!
8E\L	6	.	8ee\L	8ee\L 8ccc	4C/	e-	.	4c\	e-	4g\	e-	4ee\	e-	.	4e/	4cc\	.
8C\	.	.	8c/	8cc\	.	.	.	.	.	.	.	.	.	.	.	.	.
8D\	.	.	8d/	8dd\	4C/	-rat	.	4c\	-rat	4g\	-rat	4ee\	-rat	.	4e/	4cc\	.
8E\J	.	.	8e/J	8ee\J	.	.	.	.	.	.	.	.	.	.	.	.	.
8F\L	.	.	8f/L	8ff\L	2r	.	.	2r	.	2r	.	2r	.	.	2r	2r	.
8G\	.	.	8g/	8gg\	.	.	.	.	.	.	.	.	.	.	.	.	.
8A\	.	.	8a/	8aa\	.	.	.	.	.	.	.	.	.	.	.	.	.
8B\J	.	.	8b/J	8bb\J	.	.	.	.	.	.	.	.	.	.	.	.	.
!	!	!	!LO:LB:g=original	!	!	!	!	!	!	!	!	!	!	!	!	!	!
=29	=29	=29	=29	=29	=29	=29	=29	=29	=29	=29	=29	=29	=29	=29	=29	=29	=29
*	*	*	*^	*	*	*	*	*	*	*	*	*	*	*	*	*	*
*	*	*	*	*	*	*	*ij	*	*	*ij	*	*	*	*ij	*	*	*	*
8c\L	.	.	4cc\	2.ryy	4ccc\	2c\	Si-	.	2.c\	Si-	2g\	Si-	2ee\	Si-	.	2cc\	2ee\	.
8G\	.	.	.	.	.	.	.	.	.	.	.	.	.	.	.	.	.	.
8E\	.	.	4cc\ 4gg	.	4ee\ 4ccc	.	.	.	.	.	.	.	.	.	.	.	.	.
8C\J	.	.	.	.	.	.	.	.	.	.	.	.	.	.	.	.	.	.
8F\L	6 5	.	4cc\ 4aa	.	4dd\ 4ccc	4F\	.	.	.	.	4a\	.	2dd\	-cut	.	4cc\	2dd\	.
8D\	.	.	.	.	.	.	.	.	.	.	.	.	.	.	.	.	.	.
8G\	5 3_	.	4ff/	4dd\	4ee\ 4bb	4G\	-cut	.	4B\	-cut	4g\	-cut	.	.	.	4g/	.	.
8F\J	x	.	.	.	.	.	.	.	.	.	.	.	.	.	.	.	.	.
*	*	*	*v	*v	*	*	*	*	*	*	*	*	*	*	*	*	*	*
!LO:LB:g=original	!	!	!	!	!LO:LB:g=original	!	!	!	!	!	!	!	!	!	!	!	!
=30	=30	=30	=30	=30	=30	=30	=30	=30	=30	=30	=30	=30	=30	=30	=30	=30	=30
!	!	!	!LO:TX:a:t=P:problem:mixedbeam	!	!	!	!	!	!	!	!	!	!	!	!	!	!
8E\L	6	.	8ee\L	8ee\L 8ccc	4C/	e-	.	4c\	e-	4g\	e-	4ee\	e-	.	4e/	4cc\	.
8C|>\	.	.	8c/	8cc\	.	.	.	.	.	.	.	.	.	.	.	.	.
8D|>\	.	.	8d/	8dd\	4C/	-rat	.	4c\	-rat	4g\	-rat	4ee\	-rat	.	4e/	4cc\	.
*	*	*	*	*	*	*	*	*	*Xij	*	*	*	*Xij	*	*	*	*
8E|>\J	.	.	8e/J	8ee\J	.	.	.	.	.	.	.	.	.	.	.	.	.
8F|>\L	.	.	8f/L	8ff\L	2r	.	.	2r	.	2r	.	2r	.	.	2r	2r	.
8G|>\	.	.	8g/	8gg\	.	.	.	.	.	.	.	.	.	.	.	.	.
8A|>\	.	.	8a/	8aa\	.	.	.	.	.	.	.	.	.	.	.	.	.
8B|>\J	.	.	8b/J	8bb\J	.	.	.	.	.	.	.	.	.	.	.	.	.
!	!	!	!	!	!	!	!	!LO:LB:g=original	!	!	!	!LO:LB:g=original	!	!	!LO:LB:g=original	!LO:LB:g=original	!
=31	=31	=31	=31	=31	=31	=31	=31	=31	=31	=31	=31	=31	=31	=31	=31	=31	=31
*	*	*	*	*	*	*	*	*	*	*	*ij	*	*	*	*	*	*
8c\L	.	.	8cc\L	4ccc\	4c\	Si-	.	4c\	Si-	4g\	Si-	4ee\	Si-	.	2e/	1cc	.
8c\	.	.	8ee\	.	.	.	.	.	.	.	.	.	.	.	.	.	.
8c\	.	.	8ee\	16gg\LL	4c\	-cut	.	4c\	-cut	4g\	-cut	4ee\	-cut	.	.	.	.
.	.	.	.	16ff\	.	.	.	.	.	.	.	.	.	.	.	.	.
8c\J	.	.	8ee\J	16gg\	.	.	.	.	.	.	.	.	.	.	.	.	.
.	.	.	.	16aa\JJ	.	.	.	.	.	.	.	.	.	.	.	.	.
*tremolo	*	*	*tremolo	*	*	*	*	*	*	*	*	*	*	*	*	*	*
8c\L	.	.	8ee\L	4gg\	4c\	e-	.	4c\	e-	4g\	e-	4ee\	e-	.	2e/	.	.
8c\	.	.	8ee\	.	.	.	.	.	.	.	.	.	.	.	.	.	.
8c\	.	.	8ee\	4gg\	4c\	-rat	.	4c\	-rat	4g\	-rat	4ee\	-rat	.	.	.	.
*	*	*	*	*	*	*Xij	*	*	*	*	*Xij	*	*	*	*	*	*
8c\J	.	.	8ee\J	.	.	.	.	.	.	.	.	.	.	.	.	.	.
=32	=32	=32	=32	=32	=32	=32	=32	=32	=32	=32	=32	=32	=32	=32	=32	=32	=32
8B\L	6	.	8dd\L	4gg\	4B\	in	.	4d\	in	4g\	in	4dd\	in	.	1g	1dd	.
8B\	.	.	8dd\	.	.	.	.	.	.	.	.	.	.	.	.	.	.
8B\	.	.	8dd\	16gg\LL	4B\	prin-	.	4d\	prin-	4g\	prin-	4dd\	prin-	.	.	.	.
.	.	.	.	16ff\	.	.	.	.	.	.	.	.	.	.	.	.	.
8B\J	.	.	8dd\J	16gg\	.	.	.	.	.	.	.	.	.	.	.	.	.
.	.	.	.	16aa\JJ	.	.	.	.	.	.	.	.	.	.	.	.	.
8B\L	_	.	8dd\L	4gg\	4B\	-ci-	.	4d\	-ci-	4g\	-ci-	4dd\	-ci-	.	.	.	.
8B\	.	.	8dd\	.	.	.	.	.	.	.	.	.	.	.	.	.	.
8B\	.	.	8dd\	4gg\	4B\	-pi-	.	4d\	-pi-	4g\	-pi-	4dd\	-pi-	.	.	.	.
8B\J	x	.	8dd\J	.	.	.	.	.	.	.	.	.	.	.	.	.	.
=33	=33	=33	=33	=33	=33	=33	=33	=33	=33	=33	=33	=33	=33	=33	=33	=33	=33
8A\L	7	.	8cc\L	4gg\	4A\	-o	.	4e\	-o	4g\	-o	4cc\	-o	.	2cc\	2ee\	.
8A\	.	.	8cc\	.	.	.	.	.	.	.	.	.	.	.	.	.	.
8A\	.	.	8cc\	16ff#X\LL	4A\	et	.	4e\	et	4g\	et	4cc\	et	.	.	.	.
.	.	.	.	16gg\	.	.	.	.	.	.	.	.	.	.	.	.	.
8A\J	.	.	8cc\J	16aa\	.	.	.	.	.	.	.	.	.	.	.	.	.
.	.	.	.	16gg\JJ	.	.	.	.	.	.	.	.	.	.	.	.	.
8A\L	6\	.	8cc\L	8ff#\L	4A\	nunc	.	4d\	nunc	4f#X\	nunc	4cc\	nunc	.	2dd\	2dd\	.
8A\	.	.	8cc\	8dd\	.	.	.	.	.	.	.	.	.	.	.	.	.
8A\	.	.	8cc\	8ee\	4A\	et	.	4d\	et	4f#\	et	4cc\	et	.	.	.	.
8A\J	.	.	8cc\J	8ff#\J	.	.	.	.	.	.	.	.	.	.	.	.	.
*Xtremolo	*	*	*Xtremolo	*	*	*	*	*	*	*	*	*	*	*	*	*	*
!	!	!	!	!LO:LB:g=original	!	!	!	!	!	!LO:LB:g=original	!	!	!	!	!	!	!
=34	=34	=34	=34	=34	=34	=34	=34	=34	=34	=34	=34	=34	=34	=34	=34	=34	=34
8G\L	3	.	8b\L	8gg\L	4G\	Sem-	.	4d\	Sem-	4g\	Sem-	4b\	Sem-	.	2g/	2dd\	.
8G\	.	.	8cc\	8aa\	.	.	.	.	.	.	.	.	.	.	.	.	.
8G\	.	.	8dd\	8bb\	4G\	-per	.	4d\	-per	4g\	-per	4b\	-per	.	.	.	.
8G\J	.	.	8b\J	8gg\J	.	.	.	.	.	.	.	.	.	.	.	.	.
8A\L	6\ 3	.	4cc\	8gg\L	4A\	et	.	4d\	et	4f#X\	et	4cc\	et	.	2r	2r	.
8A\	.	.	.	8ff#X\	.	.	.	.	.	.	.	.	.	.	.	.	.
8B\	5nr 3	.	4dd\	8dd\	4B\	in	.	4G/	in	4fn\	in	4dd\	in	.	.	.	.
8B\J	.	.	.	8ffn\J	.	.	.	.	.	.	.	.	.	.	.	.	.
!	!	!	!	!	!LO:LB:g=original	!	!	!	!	!	!	!	!	!	!	!	!
=35	=35	=35	=35	=35	=35	=35	=35	=35	=35	=35	=35	=35	=35	=35	=35	=35	=35
8c\L	3	.	8cc\	8ee\	4.c\	Sae-	.	4.G/	Se-	4.e\	Sae-	4.cc\	Se-	.	1cc	1ee	.
8C\	.	.	4ee\	4ccc\	.	.	.	.	.	.	.	.	.	.	.	.	.
8E\	.	.	.	.	.	.	.	.	.	.	.	.	.	.	.	.	.
8G\J	.	.	4ee\	4ccc\	8c\	-cu-	.	8c\	-cu-	8g\	-cu-	8ee\	-cu-	.	.	.	.
8c\L	.	.	.	.	2c\	-la	.	2c\	-la	2g\	-la	2ee\	-la	.	.	.	.
8B\	.	.	4ee\	4ccc\	.	.	.	.	.	.	.	.	.	.	.	.	.
8A\	.	.	.	.	.	.	.	.	.	.	.	.	.	.	.	.	.
8G\J	.	.	8ee\	8ccc\	.	.	.	.	.	.	.	.	.	.	.	.	.
!	!	!	!	!	!	!	!	!	!	!	!	!LO:LB:g=original	!	!	!	!	!
=36	=36	=36	=36	=36	=36	=36	=36	=36	=36	=36	=36	=36	=36	=36	=36	=36	=36
!LO:TX:a:t=P:problem:mixedbeam	!	!	!	!	!	!	!	!	!	!	!	!	!	!	!	!	!
8A\L	.	.	8ee\	8ccc\	2A\	Sae-	.	2c\	Se-	2a\	Sae-	2ee\	Se-	.	1cc	1ee	.
8AA/	.	.	4ee\	4ccc\	.	.	.	.	.	.	.	.	.	.	.	.	.
8C/	.	.	.	.	.	.	.	.	.	.	.	.	.	.	.	.	.
8E/J	.	.	4ee\	4ccc\	.	.	.	.	.	.	.	.	.	.	.	.	.
8A\L	.	.	.	.	2A\	-cu-	.	2c\	-cu-	2a\	-cu-	2ee\	-cu-	.	.	.	.
8G\	.	.	4ee\	4ccc\	.	.	.	.	.	.	.	.	.	.	.	.	.
8F\	.	.	.	.	.	.	.	.	.	.	.	.	.	.	.	.	.
8E\J	.	.	8ee\	8ccc\	.	.	.	.	.	.	.	.	.	.	.	.	.
!LO:LB:g=original	!	!	!LO:LB:g=original	!	!	!	!	!LO:LB:g=original	!	!	!	!	!	!	!	!	!
=37	=37	=37	=37	=37	=37	=37	=37	=37	=37	=37	=37	=37	=37	=37	=37	=37	=37
8F\L	6 5	.	8dd\	8ccc\	4F\	-lo-	.	4c\	-lo-	4a\	-lo-	4dd\	-lo-	.	2cc\	1dd	.
8G\	_ _	.	4dd\	4ccc\	.	.	.	.	.	.	.	.	.	.	.	.	.
8A\	.	.	.	.	4F\	-rum	.	4c\	-rum	4a\	-rum	4dd\	-rum	.	.	.	.
8F\J	.	.	4dd\	8ccc\	.	.	.	.	.	.	.	.	.	.	.	.	.
8G\L	5 3	.	.	8bb\	2G\	a-	.	2B\	a-	2g\	a-	2dd\	a-	.	2g/	.	.
8A\	_	.	4dd\	4bb\	.	.	.	.	.	.	.	.	.	.	.	.	.
8B\	.	.	.	.	.	.	.	.	.	.	.	.	.	.	.	.	.
8G\J	X	.	8dd\	8bb\	.	.	.	.	.	.	.	.	.	.	.	.	.
=38	=38	=38	=38	=38	=38	=38	=38	=38	=38	=38	=38	=38	=38	=38	=38	=38	=38
!	!	!	!LO:TX:a:t=P:problem:mixedbeam	!	!	!	!	!	!	!	!	!	!	!	!	!	!
8c\L	3	.	8ee\L	8ccc\L	4C/	-men	.	4c\	-men	4g\	-men	4ee\	-men	.	4e/	4cc\	.
8C\	.	.	8c/	8cc\	.	.	.	.	.	.	.	.	.	.	.	.	.
8D\	.	.	8d/	8dd\	4r	.	.	4r	.	4r	.	4r	.	.	4r	4r	.
8E\J	.	.	8e/J	8ee\J	.	.	.	.	.	.	.	.	.	.	.	.	.
8F\L	.	.	8f/L	8ff\L	2r	.	.	2r	.	2r	.	2r	.	.	2r	2r	.
8G\	.	.	8g/	8gg\	.	.	.	.	.	.	.	.	.	.	.	.	.
8A\	.	.	8a/	8aa\	.	.	.	.	.	.	.	.	.	.	.	.	.
8B\J	.	.	8b/J	8bb\J	.	.	.	.	.	.	.	.	.	.	.	.	.
=39	=39	=39	=39	=39	=39	=39	=39	=39	=39	=39	=39	=39	=39	=39	=39	=39	=39
*	*	*	*^	*	*	*	*	*	*	*	*	*	*	*	*	*	*
8c\L	.	.	4cc\	2.ryy	4ccc\	4r	.	.	4r	.	4r	.	4r	.	.	4r	4r	.
8G\	.	.	.	.	.	.	.	.	.	.	.	.	.	.	.	.	.	.
*	*	*	*	*	*	*	*	*	*	*ij	*	*	*	*	*	*	*	*
8E\	.	.	4cc\ 4gg	.	4ee\ 4ccc	4c\	a-	.	2c\	a-	4g\	a-	4ee\	a-	.	4cc\	4ee\	.
8C\J	.	.	.	.	.	.	.	.	.	.	.	.	.	.	.	.	.	.
!LO:TX:a:t=P:problem:mixedbeam	!	!	!	!	!	!	!	!	!	!	!	!	!	!	!	!	!	!
8F\L	6 5	.	4cc\ 4aa	.	4dd\ 4ccc	4F\	.	.	.	.	4a\	.	2dd\	.	.	4cc\	4dd\	.
8D\	.	.	.	.	.	.	.	.	.	.	.	.	.	.	.	.	.	.
8G\	1	.	4ff/	4dd\	4dd\ 4bb	4G\	.	.	4B\	.	4g\	.	.	.	.	4g/	4dd\	.
8GG/J	.	.	.	.	.	.	.	.	.	.	.	.	.	.	.	.	.	.
*	*	*	*v	*v	*	*	*	*	*	*	*	*	*	*	*	*	*	*
!	!	!	!	!	!LO:LB:g=original	!	!	!	!	!LO:LB:g=original	!	!	!	!	!	!	!
=40	=40	=40	=40	=40	=40	=40	=40	=40	=40	=40	=40	=40	=40	=40	=40	=40	=40
!	!	!	!LO:TX:a:t=P:problem:mixedbeam	!	!	!	!	!	!	!	!	!	!	!	!	!	!
!	!	!	!	!LO:TX:a:t=P:problem:2 takty zapisane repetycją	!	!	!	!	!	!	!	!	!	!	!	!	!
8C\L	.	.	8ee\L	8ccc\L	4C/	-men	.	4c\	-men	4g\	-men	4ee\	-men	.	4e/	4cc\	.
8C\	.	.	8c/	8cc\	.	.	.	.	.	.	.	.	.	.	.	.	.
8D\	.	.	8d/	8dd\	4r	.	.	4r	.	4r	.	4r	.	.	4r	4r	.
8E\J	.	.	8e/J	8ee\J	.	.	.	.	.	.	.	.	.	.	.	.	.
8F\L	.	.	8f/L	8ff\L	2r	.	.	2r	.	2r	.	2r	.	.	2r	2r	.
8G\	.	.	8g/	8gg\	.	.	.	.	.	.	.	.	.	.	.	.	.
8A\	.	.	8a/	8aa\	.	.	.	.	.	.	.	.	.	.	.	.	.
8B\J	.	.	8b/J	8bb\J	.	.	.	.	.	.	.	.	.	.	.	.	.
=41	=41	=41	=41	=41	=41	=41	=41	=41	=41	=41	=41	=41	=41	=41	=41	=41	=41
*	*	*	*^	*	*	*	*	*	*	*	*	*	*	*	*	*	*
8c\L	.	.	4cc\	2.ryy	4ccc\	4r	.	.	4r	.	4r	.	4r	.	.	4r	4r	.
8G\	.	.	.	.	.	.	.	.	.	.	.	.	.	.	.	.	.	.
8E\	.	.	4cc\ 4gg	.	4ee\ 4ccc	4c\	a-	.	2c\	a-	4g\	a-	4ee\	a-	.	4cc\	4ee\	.
8C\J	.	.	.	.	.	.	.	.	.	.	.	.	.	.	.	.	.	.
!LO:TX:a:t=P:problem:mixedbeam	!	!	!	!	!	!	!	!	!	!	!	!	!	!	!	!	!	!
8F\L	6 5	.	4cc\ 4aa	.	4dd\ 4ccc	4F\	.	.	.	.	4a\	.	2dd\	.	.	4cc\	4dd\	.
8D\	.	.	.	.	.	.	.	.	.	.	.	.	.	.	.	.	.	.
8G\	.	.	4ff/	4dd\	4dd\ 4bb	4G\	.	.	4B\	.	4g\	.	.	.	.	4g/	4dd\	.
8GG/J	.	.	.	.	.	.	.	.	.	.	.	.	.	.	.	.	.	.
=42	=42	=42	=42	=42	=42	=42	=42	=42	=42	=42	=42	=42	=42	=42	=42	=42	=42	=42
4C/	.	.	4ee/	4cc\	4g\ 4ee 4ccc	4c\	.	.	4c\	-men	4g\	-men	4ee\	-men	.	4e/	4cc\	.
4GG/	.	.	4ff/	4dd\	4g\ 4dd 4bb	4G\	.	.	4B\	.	4g\	.	4dd\	.	.	4g/	4dd\	.
4C/	.	.	4ee/	4cc\	4g\ 4ee 4ccc	4C/	-men	.	4c\	.	4g\	.	4ee\	.	.	4e/	4cc\	.
4r	.	.	4r	4ryy	4r	4r	.	.	4r	.	4r	.	4r	.	.	4r	4r	.
*	*	*	*v	*v	*	*	*	*	*	*	*	*	*	*	*	*	*	*
!LO:LB:g=original	!	!	!LO:LB:g=original	!LO:LB:g=original	!LO:LB:g=original	!	!	!LO:LB:g=original	!	!LO:LB:g=original	!	!LO:LB:g=original	!	!	!LO:LB:g=original	!LO:LB:g=original	!
==;	==	==	==;	==;	==;	==	==	==;	==	==;	==	==;	==	==	==;	==;	==
*-	*-	*-	*-	*-	*-	*-	*-	*-	*-	*-	*-	*-	*-	*-	*-	*-	*-
!!!system-decoration: [(s1,s2)][(s3,s4,s5,s6)][(s7,s8)]s9
!!!RDF**kern: < = below
!!!RDF**kern: > = above
!!!RDF**kern: | = vertical stroke
!!!AIN: 1 alto 1 bass 2 cor 1 organ 1 soprn 1 tenor 2 violn
!!!ENC: Berenika Jozajtis
!!!END: 2021-11-26
!!!ENC: Marta Chmielewska
!!!END: 2021-12-09
